austria/municipalities/70213.svg

<?xml version="1.0" encoding="UTF-8"?>
<!DOCTYPE svg PUBLIC "-//W3C//DTD SVG 1.1//EN" "http://www.w3.org/Graphics/SVG/1.1/DTD/svg11.dtd">
<svg xmlns="http://www.w3.org/2000/svg" version="1.1" width="166px" height="194px" style="shape-rendering:geometricPrecision; text-rendering:geometricPrecision; image-rendering:optimizeQuality; fill-rule:evenodd; clip-rule:evenodd" xmlns:xlink="http://www.w3.org/1999/xlink">
<g><path style="opacity:1" fill="#020201" d="M -0.5,-0.5 C 54.8333,-0.5 110.167,-0.5 165.5,-0.5C 165.5,39.5 165.5,79.5 165.5,119.5C 157.944,160.722 133.611,185.389 92.5,193.5C 85.8333,193.5 79.1667,193.5 72.5,193.5C 31.6295,184.629 7.29616,159.629 -0.5,118.5C -0.5,78.8333 -0.5,39.1667 -0.5,-0.5 Z"/></g>
<g><path style="opacity:1" fill="#e6a41c" d="M 22.5,129.5 C 22.5,121.167 22.5,112.833 22.5,104.5C 16.1667,104.5 9.83333,104.5 3.5,104.5C 2.50167,70.6708 2.16834,36.6708 2.5,2.5C 28.8418,2.16688 55.1751,2.50021 81.5,3.5C 69.9456,37.6062 58.1123,71.6062 46,105.5C 45.5003,113.493 45.3336,121.493 45.5,129.5C 37.8333,129.5 30.1667,129.5 22.5,129.5 Z"/></g>
<g><path style="opacity:1" fill="#e7a51c" d="M 162.5,104.5 C 155.833,104.5 149.167,104.5 142.5,104.5C 142.5,112.833 142.5,121.167 142.5,129.5C 134.833,129.5 127.167,129.5 119.5,129.5C 119.666,121.493 119.5,113.493 119,105.5C 107.192,71.2425 95.692,36.9092 84.5,2.5C 110.5,2.5 136.5,2.5 162.5,2.5C 162.5,36.5 162.5,70.5 162.5,104.5 Z"/></g>
<g><path style="opacity:1" fill="#185528" d="M 96.5,46.5 C 95.0638,44.6815 93.3971,44.3482 91.5,45.5C 94.5056,47.3571 95.1723,49.8571 93.5,53C 90.1832,53.4983 86.8499,53.665 83.5,53.5C 83.5,49.8333 83.5,46.1667 83.5,42.5C 91.1367,42.8719 93.6367,39.5386 91,32.5C 89.4071,30.7147 87.9071,30.548 86.5,32C 89.3873,33.2761 90.5539,35.4427 90,38.5C 88.2111,40.229 86.0444,40.8957 83.5,40.5C 83.5,36.5 83.5,32.5 83.5,28.5C 88.3276,28.6148 89.6609,26.4481 87.5,22C 86.5,21.3333 85.5,21.3333 84.5,22C 88.3533,24.4804 88.0199,26.3137 83.5,27.5C 83.3337,20.825 83.5004,14.1583 84,7.5C 88.6322,20.3661 92.7989,33.3661 96.5,46.5 Z"/></g>
<g><path style="opacity:1" fill="#185628" d="M 96.5,46.5 C 98.6971,50.9251 100.197,55.5918 101,60.5C 99.8293,58.3843 98.3293,57.7176 96.5,58.5C 99.864,61.0849 100.197,63.9182 97.5,67C 92.8452,67.4992 88.1785,67.6658 83.5,67.5C 83.5,63.5 83.5,59.5 83.5,55.5C 87.1817,55.6653 90.8484,55.4986 94.5,55C 96.3137,52.5185 96.9804,49.6852 96.5,46.5 Z"/></g>
<g><path style="opacity:1" fill="#185729" d="M 101.5,61.5 C 103.002,64.6538 104.336,67.9872 105.5,71.5C 104.091,71.6541 102.424,71.8208 100.5,72C 104.521,74.0306 105.187,76.6973 102.5,80C 96.1754,80.4995 89.8421,80.6662 83.5,80.5C 83.5,76.5 83.5,72.5 83.5,68.5C 88.8437,68.666 94.1771,68.4994 99.5,68C 101.229,66.2111 101.896,64.0444 101.5,61.5 Z"/></g>
<g><path style="opacity:1" fill="#18592a" d="M 106.5,76.5 C 108.562,79.5185 109.728,82.8518 110,86.5C 108.867,84.7888 107.367,84.2888 105.5,85C 109.514,86.9855 110.181,89.6522 107.5,93C 99.5069,93.4997 91.5069,93.6664 83.5,93.5C 83.5,89.8333 83.5,86.1667 83.5,82.5C 89.8421,82.6662 96.1754,82.4995 102.5,82C 104.928,80.9817 106.262,79.1483 106.5,76.5 Z"/></g>
<g><path style="opacity:1" fill="#18592a" d="M 81.5,95.5 C 81.5,114.5 81.5,133.5 81.5,152.5C 78.1667,152.5 74.8333,152.5 71.5,152.5C 71.5,137.167 71.5,121.833 71.5,106.5C 63.4931,106.666 55.4931,106.5 47.5,106C 59.1954,73.2476 70.6954,40.4142 82,7.5C 82.8309,14.1915 82.6642,20.8582 81.5,27.5C 78.8953,25.7642 78.8953,23.9308 81.5,22C 78.77,21.0585 77.4367,22.0585 77.5,25C 77.743,28.0033 79.4096,29.17 82.5,28.5C 82.5,32.5 82.5,36.5 82.5,40.5C 78.855,41.3203 76.5217,39.987 75.5,36.5C 76.3052,34.5283 77.6385,33.0283 79.5,32C 75.9323,31.5665 74.2656,33.2332 74.5,37C 75.0915,41.4849 77.7581,43.3182 82.5,42.5C 82.5,46.1667 82.5,49.8333 82.5,53.5C 79.1501,53.665 75.8168,53.4983 72.5,53C 70.8277,49.8571 71.4944,47.3571 74.5,45.5C 71.0388,44.6031 69.3721,46.1031 69.5,50C 69.3536,52.0342 70.0203,53.7009 71.5,55C 75.1516,55.4986 78.8183,55.6653 82.5,55.5C 82.5,59.5 82.5,63.5 82.5,67.5C 77.8215,67.6658 73.1548,67.4992 68.5,67C 65.9165,63.6027 66.5831,60.7694 70.5,58.5C 68.7408,57.246 67.2408,57.5794 66,59.5C 64.0451,62.4376 64.2117,65.2709 66.5,68C 71.8229,68.4994 77.1563,68.666 82.5,68.5C 82.5,72.5 82.5,76.5 82.5,80.5C 76.1579,80.6662 69.8246,80.4995 63.5,80C 62.4258,79.2613 61.7591,78.2613 61.5,77C 62.2707,74.7334 63.6041,72.9 65.5,71.5C 63.6707,70.7176 62.1707,71.3843 61,73.5C 60.3333,75.8333 60.3333,78.1667 61,80.5C 61.7504,81.1258 62.5838,81.6258 63.5,82C 69.8246,82.4995 76.1579,82.6662 82.5,82.5C 82.5,86.1667 82.5,89.8333 82.5,93.5C 74.4931,93.6664 66.4931,93.4997 58.5,93C 56.8756,89.7944 57.5422,87.1277 60.5,85C 58.6332,84.2888 57.1332,84.7888 56,86.5C 54.8799,89.9994 55.7132,92.8328 58.5,95C 66.1594,95.4997 73.8261,95.6664 81.5,95.5 Z"/></g>
<g><path style="opacity:1" fill="#185b2a" d="M 93.5,152.5 C 90.5,152.5 87.5,152.5 84.5,152.5C 84.5,133.5 84.5,114.5 84.5,95.5C 92.5069,95.6664 100.507,95.4997 108.5,95C 110.121,92.834 110.955,90.334 111,87.5C 112.971,93.7477 115.138,99.9143 117.5,106C 109.507,106.5 101.507,106.666 93.5,106.5C 93.5,121.833 93.5,137.167 93.5,152.5 Z"/></g>
<g><path style="opacity:1" fill="#16381c" d="M 81.5,95.5 C 82.497,114.659 82.8303,133.993 82.5,153.5C 78.6286,153.815 74.9619,153.482 71.5,152.5C 74.8333,152.5 78.1667,152.5 81.5,152.5C 81.5,133.5 81.5,114.5 81.5,95.5 Z"/></g>
<g><path style="opacity:1" fill="#16381c" d="M 84.5,95.5 C 84.5,114.5 84.5,133.5 84.5,152.5C 87.5,152.5 90.5,152.5 93.5,152.5C 90.3752,153.479 87.0419,153.813 83.5,153.5C 83.1697,133.993 83.503,114.659 84.5,95.5 Z"/></g>
<g><path style="opacity:1" fill="#3a2d17" d="M 3.5,104.5 C 9.83333,104.5 16.1667,104.5 22.5,104.5C 22.5,112.833 22.5,121.167 22.5,129.5C 21.5076,121.684 21.1743,113.684 21.5,105.5C 15.31,105.823 9.31004,105.49 3.5,104.5 Z"/></g>
<g><path style="opacity:1" fill="#392d17" d="M 162.5,104.5 C 156.355,105.49 150.022,105.823 143.5,105.5C 143.826,113.684 143.492,121.684 142.5,129.5C 142.5,121.167 142.5,112.833 142.5,104.5C 149.167,104.5 155.833,104.5 162.5,104.5 Z"/></g>
<g><path style="opacity:1" fill="#fdfdfd" d="M -0.5,118.5 C 7.29616,159.629 31.6295,184.629 72.5,193.5C 48.1667,193.5 23.8333,193.5 -0.5,193.5C -0.5,168.5 -0.5,143.5 -0.5,118.5 Z"/></g>
<g><path style="opacity:1" fill="#fdfdfd" d="M 165.5,119.5 C 165.5,144.167 165.5,168.833 165.5,193.5C 141.167,193.5 116.833,193.5 92.5,193.5C 133.611,185.389 157.944,160.722 165.5,119.5 Z"/></g>
</svg>

<svg xmlns="http://www.w3.org/2000/svg" width="166" height="194" style="shape-rendering:geometricPrecision;text-rendering:geometricPrecision;image-rendering:optimizeQuality;fill-rule:evenodd;clip-rule:evenodd"><path style="opacity:1" fill="#020201" d="M-.5-.5h166v120c-7.556 41.222-31.889 65.889-73 74h-20c-40.87-8.871-65.204-33.871-73-75V-.5z"/><path style="opacity:1" fill="#e6a41c" d="M22.5 129.5v-25h-19c-.998-33.83-1.332-67.83-1-102 26.342-.333 52.675 0 79 1a6515.916 6515.916 0 0 1-35.5 102c-.5 7.993-.666 15.993-.5 24h-23z"/><path style="opacity:1" fill="#e7a51c" d="M162.5 104.5h-20v25h-23c.166-8.007 0-16.007-.5-24a6220.537 6220.537 0 0 1-34.5-103h78v102z"/><path style="opacity:1" fill="#185528" d="M96.5 46.5c-1.436-1.819-3.103-2.152-5-1 3.006 1.857 3.672 4.357 2 7.5-3.317.498-6.65.665-10 .5v-11c7.637.372 10.137-2.961 7.5-10-1.593-1.785-3.093-1.952-4.5-.5 2.887 1.276 4.054 3.443 3.5 6.5-1.789 1.729-3.956 2.396-6.5 2v-12c4.828.115 6.16-2.052 4-6.5-1-.667-2-.667-3 0 3.853 2.48 3.52 4.314-1 5.5-.166-6.675 0-13.342.5-20a577.504 577.504 0 0 1 12.5 39z"/><path style="opacity:1" fill="#185628" d="M96.5 46.5a49.145 49.145 0 0 1 4.5 14c-1.17-2.116-2.67-2.782-4.5-2 3.364 2.585 3.697 5.418 1 8.5-4.655.5-9.322.666-14 .5v-12a60.94 60.94 0 0 0 11-.5c1.814-2.481 2.48-5.315 2-8.5z"/><path style="opacity:1" fill="#185729" d="M101.5 61.5a86.539 86.539 0 0 1 4 10c-1.409.154-3.076.32-5 .5 4.021 2.03 4.687 4.697 2 8-6.325.5-12.658.666-19 .5v-12c5.344.166 10.677 0 16-.5 1.729-1.789 2.396-3.956 2-6.5z"/><path style="opacity:1" fill="#18592a" d="M106.5 76.5c2.062 3.019 3.228 6.352 3.5 10-1.133-1.711-2.633-2.211-4.5-1.5 4.014 1.986 4.681 4.652 2 8-7.993.5-15.993.666-24 .5v-11c6.342.166 12.675 0 19-.5 2.428-1.018 3.762-2.852 4-5.5zM81.5 95.5v57h-10v-46c-8.007.166-16.007 0-24-.5A8597.514 8597.514 0 0 0 82 7.5a67.226 67.226 0 0 1-.5 20c-2.605-1.736-2.605-3.57 0-5.5-2.73-.942-4.063.058-4 3 .243 3.003 1.91 4.17 5 3.5v12c-3.645.82-5.978-.513-7-4 .805-1.972 2.138-3.472 4-4.5-3.568-.433-5.234 1.233-5 5 .591 4.485 3.258 6.318 8 5.5v11a50.441 50.441 0 0 1-10-.5c-1.672-3.143-1.006-5.643 2-7.5-3.461-.897-5.128.603-5 4.5-.146 2.034.52 3.7 2 5a60.94 60.94 0 0 0 11 .5v12c-4.678.166-9.345 0-14-.5-2.584-3.397-1.917-6.23 2-8.5-1.76-1.254-3.26-.92-4.5 1-1.955 2.938-1.788 5.77.5 8.5 5.323.5 10.656.666 16 .5v12c-6.342.166-12.675 0-19-.5-1.074-.739-1.74-1.739-2-3 .77-2.267 2.104-4.1 4-5.5-1.83-.782-3.33-.116-4.5 2a12.5 12.5 0 0 0 0 7 9.468 9.468 0 0 0 2.5 1.5c6.325.5 12.658.666 19 .5v11c-8.007.166-16.007 0-24-.5-1.624-3.206-.958-5.872 2-8-1.867-.711-3.367-.211-4.5 1.5-1.12 3.5-.287 6.333 2.5 8.5 7.66.5 15.326.666 23 .5z"/><path style="opacity:1" fill="#185b2a" d="M93.5 152.5h-9v-57c8.007.166 16.007 0 24-.5 1.621-2.166 2.455-4.666 2.5-7.5a303.365 303.365 0 0 0 6.5 18.5c-7.993.5-15.993.666-24 .5v46z"/><path style="opacity:1" fill="#16381c" d="M81.5 95.5a841.631 841.631 0 0 1 1 58c-3.871.315-7.538-.018-11-1h10v-57zM84.5 95.5v57h9c-3.125.979-6.458 1.313-10 1a841.631 841.631 0 0 1 1-58z"/><path style="opacity:1" fill="#3a2d17" d="M3.5 104.5h19v25c-.992-7.816-1.326-15.816-1-24-6.19.323-12.19-.01-18-1z"/><path style="opacity:1" fill="#392d17" d="M162.5 104.5c-6.145.99-12.478 1.323-19 1 .326 8.184-.008 16.184-1 24v-25h20z"/><path style="opacity:1" fill="#fdfdfd" d="M-.5 118.5c7.796 41.129 32.13 66.129 73 75h-73v-75zM165.5 119.5v74h-73c41.111-8.111 65.444-32.778 73-74z"/></svg>
